d1 $ jux rev $ off 0.25 (|*| speed 2) $ chunk 4 (hurry 2) $ chop "<32 64 128>" $ slow 2 $ up "0*4" # sound "bd sd sd sd"

cps (1.1)



d2 $ jux rev $ chunk 4 (hurry 0.5) $ slow 2 $ n "0 7(3,8)" # sound "stabs"


nudger 0.03
