d1 $ jux rev $ off 0.25 (|*| speed 2) $ chunk 4 (hurry 2) $ chop "<32 64 128>" $ slow 2 $ up "0*4" # sound "bd sd sd sd"

cps (1.1)



d2 $ stut "<4 8 6>" 0.8 1 $ jux rev $ chunk 4 (hurry 0.5) $ slow 2 $ n "0 7(3,8)" # sound "stabs"
  |*| up "<0 0 7 7 12 12>"



nudger 0.03
