import Sound.Tidal.Light

lightServer "/dev/ttyUSB0"

l1 <- lightStream
l2 <- lightStream
l3 <- lightStream
l4 <- lightStream

let x1 p = d1 p >> l1 p
    x2 p = d2 p >> l2 p
    x3 p = d3 p >> l3 p
    x4 p = d4 p >> l4 p
    hush = mapM_ ($ silence) [d1,d2,d3,d4,d5,d6,d7,d8,d9,x1,x2,x3,x4]
