-- Tidal workshop Karlsruhe

To get to this file: https://is.gd/lcworkshop

-- download extra samples
-- http://slab.org/tmp/extra-samples.zip

-- * to speed up
d1 $ sound "bd*4 ~ sn:2*2 ~"

-- / to slow down
d1 $ sound "bd ~ ht/2 mt/3"


hush
