-- Tidal workshop Limerick, 12-13 March 2018
-- To get to this file: https://is.gd/limerick

-- download extra samples
-- http://slab.org/tmp/extra-samples.zip

-- ctrl-enter to run
d1 $ sound "bd"

-- 'stop' a pattern
d1 silence

-- start another
d2 $ sound "arpy arpy:4 arpy:3 arpy:5"

-- stop everything
hush
